src/assets/svg/icons/fa/nuevos/classic/duotone/people-robbery classic duotone.svg

<svg xmlns="http://www.w3.org/2000/svg" viewBox="0 0 576 512"><defs><style>.fa-secondary{opacity:.4}</style></defs><path class="fa-primary" d="M128 48C128 74.51 106.5 96 80.01 96C53.5 96 32.01 74.51 32.01 48C32.01 21.49 53.5 0 80.01 0C106.5 0 128 21.49 128 48zM8 192C8 156.7 36.65 128 72 128H104.7C132.1 128 157.6 142 172.2 165.1L209.6 224H240C257.7 224 272 238.3 272 256C272 273.7 257.7 288 240 288H192C181 288 170.9 282.4 164.1 273.1L152 252.7V480C152 497.7 137.7 512 120 512C102.3 512 88 497.7 88 480V352H72V480C72 497.7 57.68 512 40 512C22.33 512 8.005 497.7 8.005 480V288.6L8 287.1L8 192z"/><path class="fa-secondary" d="M400 127.1C441.7 127.1 478.1 99.59 488.2 59.1L496.1 24.24C501.2 7.093 518.6-3.331 535.8 .9552C552.9 5.242 563.3 22.62 559 39.76L550.3 74.63C539.3 118.6 510.1 154.2 472 174.3V480C472 497.7 457.7 512 440 512C422.3 512 408 497.7 408 480V352H392V480C392 497.7 377.7 512 360 512C342.3 512 328 497.7 328 480V174.3C289.9 154.2 260.7 118.6 249.7 74.63L240.1 39.76C236.7 22.62 247.1 5.242 264.2 .9552C281.4-3.331 298.8 7.093 303 24.24L311.8 59.1C321.9 99.59 358.3 127.1 400 127.1H400zM448 47.1C448 74.51 426.5 95.1 400 95.1C373.5 95.1 352 74.51 352 47.1C352 21.49 373.5-.0006 400-.0006C426.5-.0006 448 21.49 448 47.1V47.1z"/></svg>

<svg xmlns="http://www.w3.org/2000/svg" viewBox="0 0 576 512"><!--! Font Awesome Pro 6.4.0 by @fontawesome - https://fontawesome.com License - https://fontawesome.com/license (Commercial License) Copyright 2023 Fonticons, Inc. --><defs><style>.fa-secondary{opacity:.4}</style></defs><path class="fa-primary" d="M32 48a48 48 0 1 1 96 0A48 48 0 1 1 32 48zM8 192c0-35.3 28.7-64 64-64h32.7c27.4 0 52.9 14 67.5 37.1L209.6 224H240c17.7 0 32 14.3 32 32s-14.3 32-32 32H192c-11 0-21.1-5.6-27-14.9l-13-20.5V480c0 17.7-14.3 32-32 32s-32-14.3-32-32V352H72V480c0 17.7-14.3 32-32 32s-32-14.3-32-32V288.6l0-.6V192z"/><path class="fa-secondary" d="M400 128c41.7 0 78.1-28.4 88.2-68.9L497 24.2C501.2 7.1 518.6-3.3 535.8 1s27.6 21.7 23.3 38.8l-8.7 34.9c-11 44-40.2 79.6-78.3 99.6V480c0 17.7-14.3 32-32 32s-32-14.3-32-32V352H392V480c0 17.7-14.3 32-32 32s-32-14.3-32-32V174.3c-38.1-20-67.3-55.7-78.3-99.6L241 39.8C236.7 22.6 247.1 5.2 264.2 1s34.5 6.1 38.8 23.3l8.7 34.9C321.9 99.6 358.3 128 400 128zM352 48a48 48 0 1 1 96 0 48 48 0 1 1 -96 0z"/></svg>
